packages/dnb-eufemia/assets/icons/globe.svg

<svg width="16" height="16" viewBox="0 0 16 16" fill="none" xmlns="http://www.w3.org/2000/svg">
<path d="M1.14003 6.6C1.0482 7.05235 1 7.52055 1 8C1 10.2195 2.03299 12.1978 3.64443 13.4802M1.14003 6.6C1.7886 3.40486 4.61346 1 8 1C10.2901 1 12.3234 2.09977 13.6005 3.8M1.14003 6.6H4.47138C4.89451 6.60005 5.27403 6.89636 5.37671 7.30684L5.84338 9.17351C5.98815 9.75228 5.53465 10.3333 4.93804 10.3333H4.26667L3.64443 13.4802M3.64443 13.4802C4.83982 14.4316 6.35353 15 8 15C10.6854 15 13.0177 13.4878 14.1916 11.2685M13.6005 3.8C14.4793 4.96992 15 6.42415 15 8C15 9.18057 14.7077 10.2929 14.1916 11.2685M13.6005 3.8H11.062C10.6388 3.80005 10.2593 4.09636 10.1566 4.50684L9.68996 6.37351C9.54518 6.95228 9.99868 7.53327 10.5953 7.53333H11.5778L12.07 10.4889C12.1442 10.9333 12.5403 11.2687 12.9908 11.2685H14.1916" stroke="black" stroke-width="1.5" stroke-linecap="round" stroke-linejoin="round"/>
</svg>

<svg width="16" height="16" viewBox="0 0 16 16" fill="none" xmlns="http://www.w3.org/2000/svg"><path d="M1.14 6.6C1.048 7.052 1 7.52 1 8a6.987 6.987 0 0 0 2.644 5.48M1.14 6.6A7.002 7.002 0 0 1 13.6 3.8M1.14 6.6h3.331c.424 0 .803.296.906.707l.466 1.867a.944.944 0 0 1-.905 1.16h-.671l-.623 3.146m0 0A6.97 6.97 0 0 0 8 15a6.999 6.999 0 0 0 6.192-3.732M13.6 3.8A6.969 6.969 0 0 1 15 8a6.97 6.97 0 0 1-.808 3.268M13.6 3.8h-2.539a.942.942 0 0 0-.905.707L9.69 6.374a.944.944 0 0 0 .905 1.16h.983l.492 2.955c.074.444.47.78.92.78h1.202" stroke="#000" stroke-width="1.5" stroke-linecap="round" stroke-linejoin="round"/></svg>
